Yaru++/mimetypes/scalable/image-x-cursor.svg

<svg height="256" viewBox="0 0 67.73 67.73" width="256" xmlns="http://www.w3.org/2000/svg" xmlns:xlink="http://www.w3.org/1999/xlink"><linearGradient id="a" gradientTransform="matrix(0 -.11988342 .11987999 0 .362762 62.749399)" gradientUnits="userSpaceOnUse" x1="529.65515" x2="-35.310345" y1="401.58368" y2="119.09284"><stop offset="0" stop-color="#f2f2f2"/><stop offset="1" stop-color="#f9f9f9"/></linearGradient><linearGradient id="b" gradientUnits="userSpaceOnUse" x1="88" x2="488" y1="88" y2="488"><stop offset="0" stop-opacity=".588235"/><stop offset=".88" stop-opacity="0"/><stop offset="1"/></linearGradient><filter id="c" color-interpolation-filters="sRGB" height="1.087725" width="1.105998" x="-.052999" y="-.043863"><feGaussianBlur stdDeviation="8.4801079"/></filter><filter id="d" color-interpolation-filters="sRGB" height="1.021931" width="1.0265" x="-.01325" y="-.010966"><feGaussianBlur stdDeviation="2.120027"/></filter><linearGradient id="e" gradientTransform="matrix(0 -1 1 0 389.069336 -325.754884)" gradientUnits="userSpaceOnUse" x1="22.245115" x2="38.245117" y1="-345.06934" y2="-345.06934"><stop offset="0" stop-color="#4d4d4d"/><stop offset="1" stop-color="#151515"/></linearGradient><path d="m20.703991 3.4856493c-9.338465 0-10.343273.9591779-10.297505 10.3165307v19.315345 19.315344c-.04577 9.357355.95904 10.316531 10.297505 10.316531h25.969365c9.338465 0 10.297506-.959068 10.297506-10.316531v-19.315344-19.315345c0-9.3574642-.959041-10.3165307-10.297506-10.3165307z" fill="none" opacity=".2" stroke="#000" stroke-width="1.058281"/><path d="m189.84323 74c-70.59344 0-78.18921 7.250835-77.84323 77.98706v146.01294 146.01294c-.34598 70.73623 7.24979 77.98706 77.84323 77.98706h196.31354c70.59344 0 76.00668-7.27384 77.84323-77.98706v-146.01294-146.01294c0-70.737067-7.24979-77.98706-77.84323-77.98706z" filter="url(#d)" opacity=".1" transform="matrix(.13228516 0 0 .13228516 -4.409451 -6.038882)"/><path d="m189.84323 74c-70.59344 0-78.18921 7.250835-77.84323 77.98706v146.01294 146.01294c-.34598 70.73623 7.24979 77.98706 77.84323 77.98706h196.31354c70.59344 0 77.84323-7.24999 77.84323-77.98706v-146.01294-146.01294c0-70.737067-7.24979-77.98706-77.84323-77.98706z" fill="url(#b)" filter="url(#c)" opacity=".3" transform="matrix(.13228516 0 0 .13228516 -4.409451 -6.038882)"/><path d="m20.703991 3.4856493c-9.338465 0-10.343273.9591779-10.297505 10.3165307v19.315345 19.315344c-.04577 9.357355.95904 10.316531 10.297505 10.316531h25.969365c9.338465 0 10.297506-.959068 10.297506-10.316531v-19.315344-19.315345c0-9.3574642-.959041-10.3165307-10.297506-10.3165307z" fill="url(#a)"/><g fill="#fff"><path d="m20.70406 3.4856493c-9.338466 0-10.343342.9593396-10.297574 10.3166917v.529141c-.04577-9.3573525.959108-10.3166921 10.297574-10.3166921h25.969228c9.338467 0 10.297574.9592282 10.297574 10.3166921v-.529141c0-9.3574635-.959107-10.3166917-10.297574-10.3166917z" opacity=".6"/><path d="m33.688674 3.4856493v59.2637507h12.984614c9.338464 0 10.054627-.962123 10.297574-10.316435v-19.31544-19.315442c0-9.357464-.95911-10.3164337-10.297574-10.3164337z" opacity=".1"/><path d="m10.406486 33.117525v19.31544c-.04577 9.357354.959108 10.316435 10.297574 10.316435h25.969228c9.338464 0 10.054627-.962123 10.297574-10.316435v-19.31544z" opacity=".2"/><path d="m41.096643 62.7494 15.874219-15.874219v5.948567c-.01384 8.994282-1.006077 9.925652-10.099734 9.925652z"/></g><g enable-background="new" transform="matrix(1.5744115 0 0 1.5744115 -17.271137 596.9435)"><path d="m27-365.31445v14l3.132812-3.82032 2.066407 4.98633c.500059 1.25653 2.382901.47633 1.847656-.76562l-2.111328-5.09571 4.378906.01z" fill="none" stroke="#fff" stroke-width="2"/><path d="m26.999997-365.31445v14l3.13281-3.82032 2.06641 4.98633c.50006 1.25653 2.3829.47633 1.84766-.76562l-2.11133-5.09571 4.37891.01z" fill="url(#e)" fill-rule="evenodd"/></g></svg>

<?xml version="1.0" encoding="UTF-8" standalone="no"?>
<svg
   xmlns:dc="http://purl.org/dc/elements/1.1/"
   xmlns:cc="http://creativecommons.org/ns#"
   xmlns:rdf="http://www.w3.org/1999/02/22-rdf-syntax-ns#"
   xmlns:svg="http://www.w3.org/2000/svg"
   xmlns="http://www.w3.org/2000/svg"
   xmlns:xlink="http://www.w3.org/1999/xlink"
   xmlns:sodipodi="http://sodipodi.sourceforge.net/DTD/sodipodi-0.dtd"
   xmlns:inkscape="http://www.inkscape.org/namespaces/inkscape"
   height="256"
   viewBox="0 0 67.73 67.73"
   width="256"
   version="1.1"
   id="svg42"
   sodipodi:docname="image-x-cursor.svg"
   inkscape:version="0.92.5 (2060ec1f9f, 2020-04-08)">
  <metadata
     id="metadata48">
    <rdf:RDF>
      <cc:Work
         rdf:about="">
        <dc:format>image/svg+xml</dc:format>
        <dc:type
           rdf:resource="http://purl.org/dc/dcmitype/StillImage" />
        <dc:title />
      </cc:Work>
    </rdf:RDF>
  </metadata>
  <defs
     id="defs46">
    <linearGradient
       gradientTransform="rotate(-90,31.657226,-357.41211)"
       gradientUnits="userSpaceOnUse"
       y2="-345.06934"
       x2="38.245117"
       y1="-345.06934"
       x1="22.245115"
       id="linearGradient5091"
       xlink:href="#linearGradient5796"
       inkscape:collect="always" />
    <linearGradient
       id="linearGradient5796"
       inkscape:collect="always">
      <stop
         style="stop-color:#4d4d4d;stop-opacity:1"
         offset="0"
         id="stop5794" />
      <stop
         style="stop-color:#151515;stop-opacity:1;"
         offset="1"
         id="stop5792" />
    </linearGradient>
    <linearGradient
       gradientTransform="matrix(0,-0.11988342,0.11987999,0,0.3627617,62.749399)"
       inkscape:collect="always"
       xlink:href="#linearGradient4338"
       id="linearGradient4226"
       x1="529.65515"
       y1="401.58368"
       x2="-35.310345"
       y2="119.09284"
       gradientUnits="userSpaceOnUse" />
    <linearGradient
       id="linearGradient4338"
       inkscape:collect="always">
      <stop
         id="stop4340"
         offset="0"
         style="stop-color:#f2f2f2;stop-opacity:1" />
      <stop
         id="stop4342"
         offset="1"
         style="stop-color:#f9f9f9;stop-opacity:1" />
    </linearGradient>
    <linearGradient
       gradientUnits="userSpaceOnUse"
       y2="488"
       x2="488"
       y1="88"
       x1="88"
       id="linearGradient4358"
       xlink:href="#linearGradient4360"
       inkscape:collect="always" />
    <linearGradient
       inkscape:collect="always"
       id="linearGradient4360">
      <stop
         style="stop-color:#000000;stop-opacity:0.58823532"
         offset="0"
         id="stop4362" />
      <stop
         id="stop4364"
         offset="0.88"
         style="stop-color:#000000;stop-opacity:0" />
      <stop
         style="stop-color:#000000;stop-opacity:1"
         offset="1"
         id="stop4366" />
    </linearGradient>
    <filter
       height="1.0877253"
       y="-0.043862626"
       width="1.1059984"
       x="-0.052999184"
       id="filter4380"
       style="color-interpolation-filters:sRGB"
       inkscape:collect="always">
      <feGaussianBlur
         id="feGaussianBlur4382"
         stdDeviation="8.4801079"
         inkscape:collect="always" />
    </filter>
    <filter
       height="1.0219313"
       y="-0.010965657"
       width="1.0264996"
       x="-0.013249796"
       id="filter4346"
       style="color-interpolation-filters:sRGB"
       inkscape:collect="always">
      <feGaussianBlur
         id="feGaussianBlur4348"
         stdDeviation="2.120027"
         inkscape:collect="always" />
    </filter>
  </defs>
  <sodipodi:namedview
     pagecolor="#ffffff"
     bordercolor="#666666"
     borderopacity="1"
     objecttolerance="10"
     gridtolerance="10"
     guidetolerance="10"
     inkscape:pageopacity="0"
     inkscape:pageshadow="2"
     inkscape:window-width="1920"
     inkscape:window-height="1016"
     id="namedview44"
     showgrid="false"
     inkscape:zoom="3.4639785"
     inkscape:cx="75.656164"
     inkscape:cy="245.2994"
     inkscape:window-x="0"
     inkscape:window-y="27"
     inkscape:window-maximized="1"
     inkscape:current-layer="svg42" />
  <linearGradient
     id="a"
     gradientTransform="matrix(0 -.11988342 .11987999 0 .362762 292.01605)"
     gradientUnits="userSpaceOnUse"
     x1="529.65515"
     x2="-35.310345"
     y1="401.58368"
     y2="119.09284">
    <stop
       offset="0"
       stop-color="#f2f2f2"
       id="stop2" />
    <stop
       offset="1"
       stop-color="#f9f9f9"
       id="stop4" />
  </linearGradient>
  <linearGradient
     id="b"
     gradientUnits="userSpaceOnUse"
     x1="88"
     x2="488"
     y1="88"
     y2="488">
    <stop
       offset="0"
       stop-opacity=".588235"
       id="stop7" />
    <stop
       offset=".88"
       stop-opacity="0"
       id="stop9" />
    <stop
       offset="1"
       id="stop11" />
  </linearGradient>
  <filter
     id="c"
     color-interpolation-filters="sRGB"
     height="1.087725"
     width="1.105998"
     x="-.052999"
     y="-.043863">
    <feGaussianBlur
       stdDeviation="8.4801079"
       id="feGaussianBlur14" />
  </filter>
  <filter
     id="d"
     color-interpolation-filters="sRGB"
     height="1.021931"
     width="1.0265"
     x="-.01325"
     y="-.010966">
    <feGaussianBlur
       stdDeviation="2.120027"
       id="feGaussianBlur17" />
  </filter>
  <path
     style="color:#000000;display:inline;overflow:visible;visibility:visible;opacity:0.2;fill:none;fill-opacity:1;fill-rule:nonzero;stroke:#000000;stroke-width:1.0582813;stroke-miterlimit:4;stroke-dasharray:none;stroke-opacity:1;marker:none;enable-background:accumulate"
     d="m 20.70399,3.4856497 c -9.338465,0 -10.343273,0.9591779 -10.297505,10.3165303 V 33.117525 52.432869 C 10.360715,61.790224 11.365525,62.7494 20.70399,62.7494 h 25.969365 c 9.338465,0 10.297506,-0.959068 10.297506,-10.316531 V 33.117525 13.80218 c 0,-9.3574638 -0.959041,-10.3165303 -10.297506,-10.3165303 z"
     id="path1163"
     inkscape:connector-curvature="0"
     sodipodi:nodetypes="scccssscsss" />
  <path
     transform="matrix(0.13228516,0,0,0.13228516,-4.4094514,-6.0388816)"
     sodipodi:nodetypes="scccssscsss"
     inkscape:connector-curvature="0"
     id="rect4158-9"
     d="M 189.84323,74 C 119.24979,74 111.65402,81.250835 112,151.98706 V 298 444.01294 C 111.65402,514.74917 119.24979,522 189.84323,522 H 386.15677 C 456.75021,522 462.16345,514.72616 464,444.01294 V 298 151.98706 C 464,81.249993 456.75021,74 386.15677,74 Z"
     style="color:#000000;display:inline;overflow:visible;visibility:visible;opacity:0.1;fill:#000000;fill-opacity:1;fill-rule:nonzero;stroke:none;stroke-width:2;marker:none;filter:url(#filter4346);enable-background:accumulate" />
  <path
     transform="matrix(0.13228516,0,0,0.13228516,-4.4094514,-6.0388816)"
     style="color:#000000;display:inline;overflow:visible;visibility:visible;opacity:0.3;fill:url(#linearGradient4358);fill-opacity:1;fill-rule:nonzero;stroke:none;stroke-width:2;marker:none;filter:url(#filter4380);enable-background:accumulate"
     d="M 189.84323,74 C 119.24979,74 111.65402,81.250835 112,151.98706 V 298 444.01294 C 111.65402,514.74917 119.24979,522 189.84323,522 H 386.15677 C 456.75021,522 464,514.75001 464,444.01294 V 298 151.98706 C 464,81.249993 456.75021,74 386.15677,74 Z"
     id="path4350"
     inkscape:connector-curvature="0"
     sodipodi:nodetypes="scccssscsss" />
  <path
     sodipodi:nodetypes="scccssscsss"
     inkscape:connector-curvature="0"
     id="rect4158"
     d="m 20.70399,3.4856497 c -9.338465,0 -10.343273,0.9591779 -10.297505,10.3165303 V 33.117525 52.432869 C 10.360715,61.790224 11.365525,62.7494 20.70399,62.7494 h 25.969365 c 9.338465,0 10.297506,-0.959068 10.297506,-10.316531 V 33.117525 13.80218 c 0,-9.3574638 -0.959041,-10.3165303 -10.297506,-10.3165303 z"
     style="color:#000000;display:inline;overflow:visible;visibility:visible;fill:url(#linearGradient4226);fill-opacity:1;fill-rule:nonzero;stroke:none;stroke-width:0.26457033;marker:none;enable-background:accumulate" />
  <path
     inkscape:connector-curvature="0"
     id="path931"
     d="m 20.704059,3.4856497 c -9.338466,0 -10.343342,0.9593396 -10.297574,10.3166913 v 0.529141 C 10.360715,4.9741299 11.365593,4.0147903 20.704059,4.0147903 h 25.969228 c 9.338467,0 10.297574,0.9592282 10.297574,10.3166917 v -0.529141 c 0,-9.3574631 -0.959107,-10.3166913 -10.297574,-10.3166913 z"
     style="color:#000000;display:inline;overflow:visible;visibility:visible;opacity:0.6;fill:#ffffff;fill-opacity:1;fill-rule:nonzero;stroke:none;stroke-width:0.26457033;marker:none;enable-background:accumulate" />
  <g
     transform="matrix(1.5744115,0,0,1.5744115,-15.088029,595.75973)"
     id="g12439"
     style="display:inline;enable-background:new">
    <path
       id="path7431"
       d="m 27,-365.31445 v 14 l 3.132812,-3.82032 2.066407,4.98633 c 0.500059,1.25653 2.382901,0.47633 1.847656,-0.76562 l -2.111328,-5.09571 4.378906,0.01 z"
       style="display:inline;fill:none;fill-opacity:1;fill-rule:evenodd;stroke:#ffffff;stroke-width:2;stroke-linecap:butt;stroke-linejoin:miter;stroke-miterlimit:4;stroke-dasharray:none;stroke-opacity:1"
       inkscape:connector-curvature="0"
       sodipodi:nodetypes="cccccccc" />
    <path
       style="display:inline;fill:url(#linearGradient5091);fill-opacity:1;fill-rule:evenodd;stroke:none;stroke-width:2;stroke-linecap:butt;stroke-linejoin:miter;stroke-miterlimit:4;stroke-dasharray:none;stroke-opacity:1"
       d="m 26.999997,-365.31445 v 14 l 3.13281,-3.82032 2.06641,4.98633 c 0.50006,1.25653 2.3829,0.47633 1.84766,-0.76562 l -2.11133,-5.09571 4.37891,0.01 z"
       id="path7371"
       inkscape:connector-curvature="0"
       sodipodi:nodetypes="cccccccc" />
  </g>
  <path
     sodipodi:nodetypes="ccsscssc"
     inkscape:connector-curvature="0"
     id="path4231"
     d="M 33.688673,3.4856497 V 62.7494 h 12.984614 c 9.338464,0 10.054627,-0.962123 10.297574,-10.316435 V 33.117525 13.802083 c 0,-9.3574636 -0.95911,-10.3164333 -10.297574,-10.3164333 z"
     style="color:#000000;display:inline;overflow:visible;visibility:visible;opacity:0.1;fill:#ffffff;fill-opacity:1;fill-rule:nonzero;stroke:none;stroke-width:0.26457033;marker:none;enable-background:accumulate" />
  <path
     sodipodi:nodetypes="ccssscc"
     id="path4255"
     d="m 10.406485,33.117525 v 19.31544 C 10.360715,61.790319 11.365594,62.7494 20.704059,62.7494 h 25.969228 c 9.338464,0 10.054627,-0.962123 10.297574,-10.316435 v -19.31544 z"
     style="color:#000000;display:inline;overflow:visible;visibility:visible;opacity:0.2;fill:#ffffff;fill-opacity:1;fill-rule:nonzero;stroke:none;stroke-width:0.26457033;marker:none;enable-background:accumulate"
     inkscape:connector-curvature="0" />
  <path
     sodipodi:nodetypes="cccsc"
     inkscape:connector-curvature="0"
     id="path4254"
     d="M 41.096642,62.7494 56.970861,46.875181 v 5.948567 C 56.957021,61.81803 55.964784,62.7494 46.871127,62.7494 Z"
     style="color:#000000;display:inline;overflow:visible;visibility:visible;opacity:0.73600003;fill:#ffffff;fill-opacity:1;fill-rule:nonzero;stroke:none;stroke-width:2.11656237;stroke-linecap:butt;stroke-linejoin:miter;stroke-miterlimit:4;stroke-dasharray:none;stroke-dashoffset:0;stroke-opacity:1;marker:none;enable-background:accumulate" />
</svg>
